remix/Finance/price-tag-3-line.svg

<svg viewBox="0 0 24 24" fill="currentColor" xmlns="http://www.w3.org/2000/svg"><path d="M10.9042 2.10025L20.8037 3.51446L22.2179 13.414L13.0255 22.6063C12.635 22.9969 12.0019 22.9969 11.6113 22.6063L1.71184 12.7069C1.32131 12.3163 1.32131 11.6832 1.71184 11.2926L10.9042 2.10025ZM11.6113 4.22157L3.83316 11.9997L12.3184 20.485L20.0966 12.7069L19.036 5.28223L11.6113 4.22157ZM13.7327 10.5855C12.9516 9.80448 12.9516 8.53815 13.7327 7.7571C14.5137 6.97606 15.78 6.97606 16.5611 7.7571C17.3421 8.53815 17.3421 9.80448 16.5611 10.5855C15.78 11.3666 14.5137 11.3666 13.7327 10.5855Z"/></svg>

<svg viewBox="0 0 24 24" xmlns="http://www.w3.org/2000/svg"><path fill="none" d="M0 0h24v24H0Z"/><path d="M10.9 2.1l9.899 1.41 1.41 9.9 -9.192 9.192h-.001c-.4.39-1.03.39-1.42 0l-9.9-9.9H1.69c-.4-.4-.4-1.03 0-1.42l9.193-9.193Zm.7 2.122l-7.78 7.77L12.3 20.47l7.77-7.78 -1.06-7.43 -7.43-1.06Zm2.12 6.36v0c-.79-.79-.79-2.05 0-2.83 .78-.79 2.04-.79 2.82 0v0c.78.78.78 2.04-.01 2.82 -.79.78-2.05.78-2.83-.01Z"/></svg>
